; generated by PrusaSlicer 2.4.2+win64 on 2022-07-24 at 17:17:12 UTC


;
;
; 

; external perimeters extrusion width = 0.45mm
; perimeters extrusion width = 0.45mm
; infill extrusion width = 0.45mm
; solid infill extrusion width = 0.45mm
; top infill extrusion width = 0.40mm
; first layer extrusion width = 0.42mm

; external perimeters extrusion width = 0.45mm
; perimeters extrusion width = 0.45mm
; infill extrusion width = 0.45mm
; solid infill extrusion width = 0.45mm
; top infill extrusion width = 0.40mm
; first layer extrusion width = 0.42mm

; external perimeters extrusion width = 0.45mm
; perimeters extrusion width = 0.45mm
; infill extrusion width = 0.45mm
; solid infill extrusion width = 0.45mm
; top infill extrusion width = 0.40mm
; first layer extrusion width = 0.42mm

M73 P0 R44
M73 Q0 S44
M201 X1000 Y1000 Z200 E5000 ; sets maximum accelerations, mm/sec^2
M203 X200 Y200 Z12 E120 ; sets maximum feedrates, mm / sec
M204 P1250 R1250 T1250 ; sets acceleration (P, T) and retract acceleration (R), mm/sec^2
M205 X8.00 Y8.00 Z0.40 E4.50 ; sets the jerk limits, mm/sec
M205 S0 T0 ; sets the minimum extruding and travel feed rate, mm/sec
M107
;TYPE:Custom
M862.3 P "MK3S" ; printer model check
M862.1 P0.4 ; nozzle diameter check
M115 U3.11.0 ; tell printer latest fw version
G90 ; use absolute coordinates
M83 ; extruder relative mode
M104 S240 ; set extruder temp
M140 S85 ; set bed temp
M190 S85 ; wait for bed temp
M109 S240 ; wait for extruder temp
G28 W ; home all without mesh bed level
G80 ; mesh bed leveling
G1 Z0.2 F720
G1 Y-3 F1000 ; go outside print area
G92 E0
G1 X60 E9 F1000 ; intro line
G1 X100 E12.5 F1000 ; intro line
G92 E0
M221 S95

; Don't change E values below. Excessive value can damage the printer.
M907 E430 ; set extruder motor current
G21 ; set units to millimeters
G90 ; use absolute coordinates
M83 ; use relative distances for extrusion
M900 K0.08 ; Filament gcode LA 1.5
M900 K45 ; Filament gcode LA 1.0
M107
;LAYER_CHANGE
;Z:0.2
;HEIGHT:0.2
;BEFORE_LAYER_CHANGE
G92 E0.0
;0.2


G1 E-1 F2100
G1 Z.2 F720
;AFTER_LAYER_CHANGE
;0.2
G1 Z.4
G1 X106.22 Y81.996 F10800
G1 Z.2 F720
G1 E1 F2100
M204 S800
;TYPE:Skirt/Brim
;WIDTH:0.42
G1 F1200
G1 X108 Y81.195 E.0612
G1 X142 Y81.195 E1.06605
G1 X143.307 Y81.586 E.04278
G1 X144.353 Y83.234 E.0612
G1 X146.853 Y100.662 E.55205
G1 X146.821 Y123.579 E.71853
G1 X146.425 Y124.884 E.04278
G1 X145.376 Y125.757 E.04278
G1 X144.444 Y125.947 E.0298
G1 X105.444 Y125.947 E1.22282
G1 X104.137 Y125.555 E.04278
G1 X103.261 Y124.509 E.04278
G1 X103.067 Y123.57 E.03008
G1 X103.123 Y100.991 E.70794
G1 X105.647 Y83.234 E.56235
G1 X106.195 Y82.05 E.0409
M204 S1000
; printing object mpu bracket 2.STL id:0 copy 0
;WIPE_START
G1 F8640
G1 X108 Y81.195 E-.46125
G1 X110.117 Y81.195 E-.48875
;WIPE_END
G1 E-.05 F2100
G1 Z.4 F720
G1 X130.141 Y85.939 F10800
G1 Z.2 F720
M73 P0 R43
G1 E1 F2100
M204 S800
;TYPE:Perimeter
G1 F1200
G1 X130.154 Y86.372 E.01358
G1 X130.239 Y86.765 E.0126
G1 X130.391 Y87.139 E.01265
G1 X130.608 Y87.486 E.01284
G1 X130.905 Y87.797 E.01346
G1 X119.096 Y87.797 E.37026
G1 X119.392 Y87.486 E.01346
G1 X119.609 Y87.139 E.01284
G1 X119.761 Y86.765 E.01264
G1 X119.846 Y86.372 E.0126
G1 X119.863 Y85.971 E.01258
G1 X119.812 Y85.573 E.01259
G1 X119.693 Y85.188 E.01263
G1 X119.508 Y84.826 E.01275
G1 X119.256 Y84.5 E.01292
G1 X119.079 Y84.345 E.00737
G1 X119.996 Y84.359 E.02875
G1 X130.92 Y84.346 E.34252
G1 X130.744 Y84.5 E.00732
G1 X130.492 Y84.826 E.01292
G1 X130.307 Y85.188 E.01275
G1 X130.188 Y85.573 E.01263
G1 X130.149 Y85.88 E.0097
M204 S1000
;WIPE_START
G1 F8640
G1 X130.154 Y86.372 E-.11369
G1 X130.239 Y86.765 E-.09283
G1 X130.391 Y87.139 E-.09312
G1 X130.608 Y87.486 E-.09459
G1 X130.905 Y87.797 E-.09912
G1 X128.927 Y87.797 E-.45666
;WIPE_END
G1 E-.05 F2100
G1 Z.4 F720
G1 X119.485 Y85.987 F10800
G1 Z.2 F720
G1 E1 F2100
M204 S800
;TYPE:External perimeter
G1 F1200
G1 X119.47 Y86.324 E.01057
G1 X119.399 Y86.654 E.01057
G1 X119.272 Y86.967 E.01059
G1 X119.092 Y87.254 E.01065
G1 X118.858 Y87.503 E.01069
G1 X118.579 Y87.703 E.01077
G1 X118.263 Y87.831 E.01069
G1 X117.949 Y87.891 E.01005
G1 X117.649 Y87.918 E.00944
G1 X117.351 Y87.918 E.00932
G1 X117.051 Y87.891 E.00944
G1 X116.737 Y87.831 E.01005
G1 X116.421 Y87.703 E.01069
G1 X116.142 Y87.503 E.01077
G1 X115.908 Y87.254 E.01069
G1 X115.728 Y86.967 E.01065
G1 X115.601 Y86.654 E.01059
G1 X115.53 Y86.324 E.01057
G1 X115.515 Y85.987 E.01057
G1 X115.558 Y85.653 E.01057
G1 X115.658 Y85.331 E.01058
G1 X115.812 Y85.029 E.01062
G1 X116.02 Y84.76 E.01067
G1 X116.278 Y84.534 E.01073
G1 X116.578 Y84.37 E.01073
G1 X116.895 Y84.278 E.01036
G1 X117.202 Y84.235 E.00972
G1 X117.797 Y84.235 E.01866
G1 X118.105 Y84.278 E.00974
G1 X118.422 Y84.37 E.01036
G1 X118.722 Y84.534 E.01073
G1 X118.98 Y84.76 E.01073
G1 X119.188 Y85.029 E.01067
G1 X119.342 Y85.331 E.01062
G1 X119.442 Y85.653 E.01058
G1 X119.477 Y85.928 E.00869
M204 S1000
G1 X119.783 Y86.143 F10800
;WIPE_START
G1 F8640
G1 X119.47 Y86.324 E-.0915
G1 X119.399 Y86.654 E-.07787
G1 X119.272 Y86.967 E-.07796
G1 X119.092 Y87.254 E-.07844
G1 X118.858 Y87.503 E-.0787
G1 X118.579 Y87.703 E-.07929
G1 X118.263 Y87.831 E-.07871
G1 X117.949 Y87.891 E-.074
G1 X117.649 Y87.918 E-.06953
G1 X117.351 Y87.918 E-.06865
G1 X117.051 Y87.891 E-.06953
G1 X116.737 Y87.831 E-.074
G1 X116.609 Y87.779 E-.03181
;WIPE_END
G1 E-.05 F2100
G1 Z.4 F720
G1 X114.302 Y85.542 F10800
G1 Z.2 F720
G1 E1 F2100
M204 S800
;TYPE:Perimeter
G1 F1200
G1 X114.193 Y85.188 E.01161
G1 X114.008 Y84.826 E.01275
G1 X113.756 Y84.5 E.01292
G1 X113.579 Y84.345 E.00737
G1 X114.499 Y84.359 E.02884
G1 X115.922 Y84.345 E.04462
G1 X115.744 Y84.5 E.00739
G1 X115.492 Y84.826 E.01292
G1 X115.307 Y85.188 E.01275
G1 X115.188 Y85.573 E.01263
G1 X115.137 Y85.971 E.01259
G1 X115.154 Y86.372 E.01258
G1 X115.239 Y86.765 E.0126
G1 X115.391 Y87.139 E.01265
G1 X115.608 Y87.486 E.01284
G1 X115.907 Y87.799 E.01356
G1 X113.595 Y87.797 E.07248
G1 X113.892 Y87.486 E.01346
G1 X114.109 Y87.139 E.01284
G1 X114.261 Y86.765 E.01265
G1 X114.346 Y86.372 E.0126
G1 X114.363 Y85.971 E.01258
G1 X114.315 Y85.6 E.01173
M204 S1000
G1 X113.942 Y85.653 F10800
M204 S800
;TYPE:External perimeter
G1 F1200
G1 X113.985 Y85.987 E.01057
G1 X113.97 Y86.324 E.01057
G1 X113.899 Y86.654 E.01057
G1 X113.772 Y86.967 E.01059
G1 X113.592 Y87.254 E.01065
G1 X113.358 Y87.503 E.01069
G1 X113.079 Y87.703 E.01077
G1 X112.763 Y87.831 E.01069
G1 X112.449 Y87.891 E.01005
G1 X112.149 Y87.918 E.00944
G1 X111.851 Y87.918 E.00932
G1 X111.551 Y87.891 E.00944
G1 X111.237 Y87.831 E.01005
G1 X110.921 Y87.703 E.01069
G1 X110.642 Y87.503 E.01077
G1 X110.408 Y87.254 E.01069
G1 X110.228 Y86.967 E.01065
G1 X110.101 Y86.654 E.01059
G1 X110.03 Y86.324 E.01057
G1 X110.015 Y85.987 E.01057
G1 X110.058 Y85.653 E.01057
G1 X110.158 Y85.331 E.01058
G1 X110.312 Y85.029 E.01062
G1 X110.52 Y84.76 E.01067
G1 X110.778 Y84.534 E.01073
G1 X111.078 Y84.37 E.01073
G1 X111.395 Y84.278 E.01036
G1 X111.702 Y84.235 E.00972
G1 X112.297 Y84.235 E.01866
G1 X112.605 Y84.278 E.00974
G1 X112.922 Y84.37 E.01036
G1 X113.222 Y84.534 E.01073
G1 X113.48 Y84.76 E.01073
G1 X113.688 Y85.029 E.01067
G1 X113.842 Y85.331 E.01062
G1 X113.924 Y85.596 E.0087
M204 S1000
G1 X114.263 Y85.756 F10800
;WIPE_START
G1 F8640
G1 X113.985 Y85.987 E-.09152
G1 X113.97 Y86.324 E-.07781
G1 X113.899 Y86.654 E-.07787
G1 X113.772 Y86.967 E-.07796
G1 X113.592 Y87.254 E-.07845
G1 X113.358 Y87.503 E-.0787
G1 X113.079 Y87.703 E-.07928
G1 X112.763 Y87.831 E-.07872
G1 X112.449 Y87.891 E-.074
G1 X112.149 Y87.918 E-.06953
G1 X111.851 Y87.918 E-.06865
G1 X111.551 Y87.891 E-.06953
G1 X111.432 Y87.868 E-.02798
;WIPE_END
G1 E-.05 F2100
G1 Z.4 F720
G1 X110.422 Y84.345 F10800
G1 Z.2 F720
G1 E1 F2100
M204 S800
;TYPE:Perimeter
G1 F1200
G1 X110.244 Y84.5 E.0074
G1 X109.992 Y84.826 E.01292
G1 X109.807 Y85.188 E.01275
G1 X109.688 Y85.573 E.01263
G1 X109.637 Y85.971 E.01259
G1 X109.654 Y86.372 E.01258
G1 X109.739 Y86.765 E.0126
G1 X109.891 Y87.139 E.01265
G1 X110.108 Y87.486 E.01284
G1 X110.407 Y87.799 E.01356
G1 X108.787 Y87.788 E.0508
G1 X108.787 Y84.355 E.10765
G1 X110.362 Y84.345 E.04938
M204 S1000
;WIPE_START
G1 F8640
G1 X110.244 Y84.5 E-.04492
G1 X109.992 Y84.826 E-.09517
G1 X109.807 Y85.188 E-.0939
G1 X109.688 Y85.573 E-.09298
G1 X109.637 Y85.971 E-.09275
G1 X109.654 Y86.372 E-.09266
G1 X109.739 Y86.765 E-.09283
G1 X109.891 Y87.139 E-.09312
G1 X110.108 Y87.486 E-.09459
G1 X110.407 Y87.799 E-.09987
G1 X110.159 Y87.797 E-.05721
;WIPE_END
G1 E-.05 F2100
G1 Z.4 F720
G1 X130.515 Y85.987 F10800
G1 Z.2 F720
G1 E1 F2100
M204 S800
;TYPE:External perimeter
G1 F1200
G1 X130.558 Y85.653 E.01057
G1 X130.658 Y85.331 E.01058
G1 X130.812 Y85.029 E.01062
G1 X131.02 Y84.76 E.01067
G1 X131.278 Y84.534 E.01073
G1 X131.578 Y84.37 E.01073
G1 X131.895 Y84.278 E.01036
G1 X132.202 Y84.235 E.00972
G1 X132.481 Y84.223 E.00874
G1 X132.797 Y84.235 E.00993
G1 X133.105 Y84.278 E.00974
G1 X133.422 Y84.37 E.01036
G1 X133.722 Y84.534 E.01073
G1 X133.98 Y84.76 E.01073
G1 X134.188 Y85.029 E.01067
G1 X134.342 Y85.331 E.01062
G1 X134.442 Y85.653 E.01058
G1 X134.485 Y85.987 E.01057
G1 X134.47 Y86.324 E.01057
G1 X134.399 Y86.654 E.01057
G1 X134.272 Y86.967 E.01059
G1 X134.092 Y87.254 E.01065
G1 X133.858 Y87.503 E.01069
G1 X133.579 Y87.703 E.01077
G1 X133.263 Y87.831 E.01069
G1 X132.949 Y87.891 E.01005
G1 X132.649 Y87.918 E.00944
G1 X132.351 Y87.918 E.00932
G1 X132.051 Y87.891 E.00944
G1 X131.737 Y87.831 E.01005
G1 X131.421 Y87.703 E.01069
G1 X131.142 Y87.503 E.01077
G1 X130.908 Y87.254 E.01069
G1 X130.728 Y86.967 E.01065
G1 X130.601 Y86.654 E.01059
G1 X130.53 Y86.324 E.01057
G1 X130.518 Y86.047 E.00868
M204 S1000
G1 X130.231 Y85.807 F10800
;WIPE_START
G1 F8640
G1 X130.558 Y85.653 E-.09153
G1 X130.658 Y85.331 E-.07792
G1 X130.812 Y85.029 E-.07822
G1 X131.02 Y84.76 E-.07858
G1 X131.278 Y84.534 E-.07901
G1 X131.578 Y84.37 E-.07899
G1 X131.895 Y84.278 E-.07631
G1 X132.202 Y84.235 E-.0716
G1 X132.481 Y84.223 E-.06436
G1 X132.797 Y84.235 E-.07316
G1 X133.105 Y84.278 E-.07173
G1 X133.422 Y84.37 E-.07631
G1 X133.545 Y84.437 E-.03229
;WIPE_END
G1 E-.05 F2100
G1 Z.4 F720
G1 X135.639 Y86.003 F10800
G1 Z.2 F720
G1 E1 F2100
M204 S800
;TYPE:Perimeter
G1 F1200
G1 X135.654 Y86.372 E.01157
G1 X135.739 Y86.765 E.0126
G1 X135.891 Y87.139 E.01265
G1 X136.108 Y87.486 E.01284
G1 X136.405 Y87.797 E.01346
G1 X134.093 Y87.799 E.07248
G1 X134.392 Y87.486 E.01356
G1 X134.609 Y87.139 E.01284
G1 X134.761 Y86.765 E.01265
G1 X134.846 Y86.372 E.0126
G1 X134.863 Y85.971 E.01258
G1 X134.812 Y85.573 E.01259
G1 X134.693 Y85.188 E.01263
G1 X134.508 Y84.826 E.01275
G1 X134.256 Y84.5 E.01292
G1 X134.078 Y84.345 E.0074
G1 X136.42 Y84.346 E.07343
G1 X136.244 Y84.5 E.00732
G1 X135.992 Y84.826 E.01292
G1 X135.807 Y85.188 E.01275
G1 X135.688 Y85.573 E.01263
G1 X135.641 Y85.944 E.01172
M204 S1000
G1 X136.015 Y85.987 F10800
M204 S800
;TYPE:External perimeter
G1 F1200
G1 X136.058 Y85.653 E.01057
G1 X136.158 Y85.331 E.01058
G1 X136.312 Y85.029 E.01062
G1 X136.52 Y84.76 E.01067
G1 X136.778 Y84.534 E.01073
G1 X137.078 Y84.37 E.01073
G1 X137.395 Y84.278 E.01036
G1 X137.702 Y84.235 E.00972
G1 X137.981 Y84.223 E.00874
G1 X138.297 Y84.235 E.00993
G1 X138.605 Y84.278 E.00974
G1 X138.922 Y84.37 E.01036
G1 X139.222 Y84.534 E.01073
G1 X139.48 Y84.76 E.01073
G1 X139.688 Y85.029 E.01067
G1 X139.842 Y85.331 E.01062
G1 X139.942 Y85.653 E.01058
G1 X139.985 Y85.987 E.01057
G1 X139.97 Y86.324 E.01057
G1 X139.899 Y86.654 E.01057
G1 X139.772 Y86.967 E.01059
G1 X139.592 Y87.254 E.01065
G1 X139.358 Y87.503 E.01069
G1 X139.079 Y87.703 E.01077
G1 X138.763 Y87.831 E.01069
G1 X138.449 Y87.891 E.01005
G1 X138.149 Y87.918 E.00944
G1 X137.851 Y87.918 E.00932
G1 X137.551 Y87.891 E.00944
G1 X137.237 Y87.831 E.01005
G1 X136.921 Y87.703 E.01069
G1 X136.642 Y87.503 E.01077
G1 X136.408 Y87.254 E.01069
G1 X136.228 Y86.967 E.01065
G1 X136.101 Y86.654 E.01059
G1 X136.03 Y86.324 E.01057
G1 X136.018 Y86.047 E.00869
M204 S1000
G1 X135.731 Y85.807 F10800
;WIPE_START
G1 F8640
G1 X136.058 Y85.653 E-.09153
G1 X136.158 Y85.331 E-.07792
G1 X136.312 Y85.029 E-.07822
G1 X136.52 Y84.76 E-.07858
G1 X136.778 Y84.534 E-.07901
G1 X137.078 Y84.37 E-.07899
G1 X137.395 Y84.278 E-.07631
G1 X137.702 Y84.235 E-.0716
G1 X137.981 Y84.223 E-.06436
G1 X138.297 Y84.235 E-.07316
G1 X138.605 Y84.278 E-.07173
G1 X138.922 Y84.37 E-.07631
G1 X139.045 Y84.437 E-.03229
;WIPE_END
G1 E-.05 F2100
G1 Z.4 F720
G1 X141.213 Y84.355 F10800
G1 Z.2 F720
G1 E1 F2100
M204 S800
;TYPE:Perimeter
G1 F1200
G1 X141.213 Y87.788 E.10765
G1 X139.593 Y87.799 E.0508
G1 X139.892 Y87.486 E.01356
G1 X140.109 Y87.139 E.01284
G1 X140.261 Y86.765 E.01265
G1 X140.346 Y86.372 E.0126
G1 X140.363 Y85.971 E.01258
G1 X140.312 Y85.573 E.01259
G1 X140.193 Y85.188 E.01263
G1 X140.008 Y84.826 E.01275
G1 X139.756 Y84.5 E.01292
G1 X139.578 Y84.345 E.0074
G1 X141.153 Y84.355 E.04938
M204 S1000
G1 X141.59 Y83.98 F10800
M204 S800
;TYPE:External perimeter
G1 F1200
G1 X141.59 Y88.163 E.13114
G1 X139.489 Y88.176 E.06586
G1 X138.485 Y88.271 E.03163
G1 X138 Y88.295 E.01523
G1 X137.515 Y88.271 E.01523
G1 X136.512 Y88.176 E.03157
G1 X136.002 Y88.164 E.01601
G1 X133.989 Y88.176 E.0631
G1 X132.985 Y88.271 E.03163
G1 X132.5 Y88.295 E.01523
G1 X132.015 Y88.271 E.01523
G1 X131.012 Y88.176 E.03157
G1 X130.503 Y88.164 E.01599
G1 X119.497 Y88.164 E.34506
G1 X118.988 Y88.176 E.01599
M73 P1 R43
M73 Q1 S44
G1 X117.985 Y88.271 E.03157
G1 X117.5 Y88.295 E.01523
G1 X117.015 Y88.271 E.01523
G1 X116.011 Y88.176 E.03163
G1 X113.998 Y88.164 E.0631
G1 X113.488 Y88.176 E.01601
G1 X112.485 Y88.271 E.03157
G1 X112 Y88.295 E.01523
G1 X111.515 Y88.271 E.01523
G1 X110.511 Y88.176 E.03163
G1 X108.41 Y88.163 E.06586
G1 X108.41 Y83.98 E.13114
G1 X110.511 Y83.967 E.06587
G1 X111.515 Y83.871 E.03165
G1 X112 Y83.846 E.01521
G1 X112.485 Y83.871 E.01521
G1 X113.488 Y83.967 E.03162
G1 X114.499 Y83.982 E.0317
G1 X116.011 Y83.967 E.0474
G1 X117.015 Y83.871 E.03163
G1 X117.5 Y83.846 E.01521
G1 X117.985 Y83.871 E.01521
G1 X118.988 Y83.967 E.03162
G1 X119.998 Y83.982 E.03167
G1 X130.503 Y83.98 E.32935
G1 X131.013 Y83.967 E.016
G1 X132.015 Y83.871 E.03158
G1 X132.5 Y83.846 E.01521
G1 X132.985 Y83.871 E.01521
G1 X133.989 Y83.967 E.03165
G1 X136.002 Y83.98 E.06311
G1 X136.513 Y83.967 E.01602
G1 X137.515 Y83.871 E.03158
G1 X138 Y83.846 E.01521
G1 X138.485 Y83.871 E.01521
G1 X139.489 Y83.967 E.03165
G1 X141.53 Y83.98 E.06399
M204 S1000
G1 X141.386 Y84.324 F10800
;WIPE_START
G1 F8640
G1 X141.589 Y88.094 E-.95
;WIPE_END
G1 E-.05 F2100
G1 Z.4 F720
G1 X140.287 Y84.462 F10800
G1 Z.2 F720
G1 E1 F2100
M204 S800
;TYPE:Solid infill
;WIDTH:0.441138
G1 F1200
G1 X140.93 Y85.105 E.0301
G1 X140.93 Y85.668 E.01865
G1 X140.506 Y85.244 E.01985
G1 X140.589 Y85.513 E.0093
G1 X140.645 Y85.946 E.01445
G1 X140.93 Y86.231 E.01337
G1 X140.93 Y86.794 E.01865
G1 X140.612 Y86.477 E.01488
G1 X140.5 Y86.928 E.01539
G1 X140.93 Y87.358 E.02013
G1 X140.93 Y87.507 E.00496
G1 X140.519 Y87.51 E.01361
G1 X140.206 Y87.197 E.01465
M204 S1000
;WIPE_START
G1 F8640
G1 X140.519 Y87.51 E-.10216
G1 X140.93 Y87.507 E-.09488
G1 X140.93 Y87.358 E-.03456
G1 X140.5 Y86.928 E-.14041
G1 X140.612 Y86.477 E-.10729
G1 X140.93 Y86.794 E-.10374
G1 X140.93 Y86.231 E-.13004
G1 X140.645 Y85.946 E-.09323
G1 X140.589 Y85.513 E-.1008
G1 X140.534 Y85.335 E-.0429
;WIPE_END
G1 E-.05 F2100
G1 Z.4 F720
G1 X139.418 Y87.871 F10800
G1 Z.2 F720
G1 E1 F2100
M204 S800
;TYPE:Gap fill
;WIDTH:0.200897
G1 F1200
G1 X139.199 Y87.939 E.00301
M204 S1000
M204 S800
;WIDTH:0.19329
G1 X139.02 Y87.983 E.00231
M204 S1000
M204 S800
;WIDTH:0.143305
G1 X138.84 Y88.027 E.00154
M204 S1000
;WIPE_START
G1 F8640
G1 X139.02 Y87.983 E-.04272
;WIPE_END
G1 E-.95728 F2100
G1 Z.4 F720
G1 X137.16 Y88.027 F10800
G1 Z.2 F720
G1 E1 F2100
M204 S800
;WIDTH:0.143306
G1 F1200
G1 X136.98 Y87.983 E.00154
M204 S1000
M204 S800
;WIDTH:0.193292
G1 X136.801 Y87.939 E.00231
M204 S1000
M204 S800
;WIDTH:0.200898
G1 X136.579 Y87.87 E.00305
M204 S1000
;WIPE_START
G1 F8640
G1 X136.801 Y87.939 E-.05366
;WIPE_END
G1 E-.94634 F2100
G1 Z.4 F720
G1 X133.918 Y87.871 F10800
G1 Z.2 F720
G1 E1 F2100
M204 S800
;WIDTH:0.200897
G1 F1200
